X:6
T:Agneau de Dieu qui prends nos pchs - D261
C:P. Damon
M:6/4
L:1/4
K:Em
E|"Mim"E2B "Sol"BAG|"Re"A2B "Sol"B2E|"Mim"E2B "Sol"BAG|"Re"A2B "Sol"B3|
"Mim"EFG "Re"A2B|"Do"G2F "Sol"B3|"Mim"EFG "Re"A2B|"Do"G2"Re"F "Mim"E3||
